X:1
T:Oboe Sonata No. 5 in D minor
T:Oboe Sonata No. 5 in D minor
T:François Devienne Opus 71
T:by Mutopia-2018/06/17-2228
T:by Mutopia-2018/06/17-2228
T:by Mutopia-2018/06/17-2228
T:by Mutopia-2018/06/17-2228
T:by Mutopia-2018/06/17-2228
T:by Mutopia-2018/06/17-2228
C:François Devienne Opus 71
Z:by Mutopia-2018/06/17-2228
%%score 1 2
L:1/8
Q:1/4=60
M:2/4
K:F
V:1 treble nm="Oboe"
V:2 bass nm="Fagotto"
V:1
"^Allegro con gusto" A/>A/ | (d2 e)f | (e>^c d)d/A/ | BB Bd/B/ | %4
 (TB/A/)A z/ !wedge!A/!wedge!d/!wedge!f/ | (a2 g)!wedge!f | (e b2) (g/e/) | (d>f) (e>a) | %8
 (g2 f/) !wedge!A/!wedge!d/!wedge!f/ | a3 g/f/ | (_e/g/ b2) (g/e/) | (d>f) (!courtesy!=e>^c) | %12
 d2 (3z/ (A/d/) (3(f/e/)d/ | (3(^c/e/)!wedge!c/(3(B/A/)A/ (3!wedge!A/(c/d/(3e/f/g/) | %14
 (3(f/e/d/)d (3z/ a/g/(3f/e/d/ | (3^c/e/c/(3(B/A/)!wedge!A/ (3!wedge!A/(c/d/(3e/f/g/) | %16
 (3f/e/d/{/e}(3d/^c/d/ (3!wedge!A/(c/d/(3e/f/g/) | %17
 (3(f/e/)!wedge!d/(3(a/g/)!wedge!f/ (3(b/a/)!wedge!g/(3(f/e/)!wedge!d/ | ^ca A z | %19
 f2- f/(a/g/)!wedge!e/ | f2- f/(a/c'/)(e/ | f/)!wedge!a/(=B/c/) !wedge!f/(^G/A/)d/ | %22
 (!courtesy!_cTB) A z | g2- g/(b/a/)^f/ | g2- g/(b/g/)!wedge!!courtesy!=f/ | %25
 (^d/e/)g/.e/ (=B/c/).=d/._B/ | ^G2 A z | c'2 e2 | (!turn!f>a) ca/a/ | a2 ^c2 | (!turn!d>f) Af/f/ | %31
 f2 T_e2{de} |"_cresc." (d>^f) (g>=f) | (e>^g) (a>=g) | f/faba/ | a/g=bc'_b/ | %36
 a(3(c'/=b/_b/) (3a/g/f/(3e/d/c/ | (3B/A/G/(3F/E/G/ (3c/e/f/(3g/a/b/ | %38
 a(3c'/=b/_b/ (3a/g/f/(3e/d/c/ | (3B/A/G/(3F/E/G/ (3c/e/f/(3g/a/b/ | %40
 a(3c'/(^g/a/) (3a/(e/f/)(3f/(^c/d/) | (3d/(A/B/)(3B/(^F/G/) (3(G/A/)B/(3(!courtesy!=B/c/)d/ | %42
 c2 Tg2{fg} | f2 z c/>c/ | (f2 g)!wedge!_a | g3 (b/g/) | (f/e/)(_d/c/) (Tc=d/)!wedge!e/ | %47
 (f>_a) c(f/a/) | g2 (_a/g/f/g/) | (_a>g) (f/_e/)(_d/c/) | B/_df_eG/ | _A2 z c/c/ | c f2 _e | %53
 (_e/_d/) d2 g/g/ | (g!>(! _a2) (g/f/)!>)! | (f2 e)(g/_a/) | (b>g) (f/e/)(g/b/) | _a a2 Tg | %58
{g} (f/e/f/g/ _a/=a/b/=b/ | c')!wedge!c z2 | %60
 (^c/4d/4e/4d/4c/4d/4e/4d/4) .d/4(g/4b/4a/4g/4f/4e/4d/4) | %61
 (=B/4!courtesy!=c/4d/4c/4B/4c/4d/4c/4) .c/4.f/4.a/4.g/4.f/4.e/4.d/4.c/4 | %62
 (c/4!courtesy!_B/4).B/4.B/4(A/4B/4).B/4.B/4 (.B/4e/4g/4f/4e/4d/4c/4B/4) | %63
 (A/4F/4).c/4.c/4(c/4A/4).f/4.f/4 (f/4c/4).a/4.a/4.a/4.f/4.c'/4.c'/4 | %64
 (b/4a/4g/4a/4)(g/4f/4e/4f/4) (e/4f/4g/4f/4e/4d/4c/4B/4) | %65
 (A/4F/4).c/4.c/4(c/4A/4).f/4.f/4 (f/4c/4).a/4.a/4(a/4f/4).c'/4.c'/4 | %66
 (b/4a/4g/4a/4)(g/4f/4e/4f/4) (e/4f/4g/4f/4e/4d/4c/4B/4) | A!sfz! _e2 (d/^c/) | d!sfz! (b2 a) | %69
 g c'2 (=b/_b/) |{/b} (a/4g/4a/4b/4c'/4b/4a/4g/4 a/4g/4f/4e/4f/4e/4d/4^c/4) | %71
{/e} (d/4^c/4d/4e/4f/4e/4d/4c/4 d/4=c/4B/4A/4G/4F/4E/4D/4 | C2) Tg2 | f z!sfz! ^f2 | %74
 g/{/a}(g/4^f/4g/)!wedge!b/ (d/>=f/)(e/>g/) | f z!sfz! (^f2 | %76
 g/){/a}(g/4^f/4g/)b/ (d/>=f/)(e/>g/) | (g2 f) :: c/>c/ | (a2 g)!wedge!f | (e>g f)c/>c/ | %81
 (c'2 b)!wedge!a | g>b ac'/>c'/ | (c'd) (3z/ (b/a/(3g/a/b/) | (bc) (3z/ (a/g/(3f/g/a/) | %85
 (3(g/^f/g/)(3(b/a/)!wedge!g/ (3(=f/e/)!wedge!d/(3(c/d/)!wedge!e/ | f2 z2 | %87
 (f/(3g/4f/4e/4 f/).c'/ b/a/g/f/4>g/4 |{/g} (f/_e/) e2 (e | %89
 d/){/!courtesy!=e}(_d/4^c/4=d/)!wedge!^f/ (a/f/)d/=c/ |{/d} (c/B/) B2 g/>b/ | (ag/>)b/ (ag/>)b/ | %92
 (b/_a/ a2) (g/4f/4)(_e/4d/4) | (c/4B/4d/4c/4)(B/4d/4f/4_e/4) (d/4f/4_a/4g/4)(f/4c'/4b/4a/4) | %94
 (_a2 g)g/>g/ |!>(! (=bg/>)!wedge!g/!>)!!>(! (c'g/>)g/!>)! | (g>f _e)e/>e/ | %97
 (_ed/>)!wedge!^f/ (fa/>c/) |{/d} (c/B/)B z/ .b/.b/.b/ |!>(! (b/a<)^c!>)!b/b/b/ | %100
!>(! b/a<d!>)!(b/a/)a/ | (a/^g/)(g/f/) (f/e/)(e/d/) | %102
 ^c (3(c/d/)!wedge!e/ (3(e/f/)!wedge!!courtesy!=g/(3(g/f/)!wedge!g/ | %103
 (3!wedge!f/^c/d/{/e}(3d/c/d/ (3(a/g/)!wedge!f/(3(f/e/)!wedge!d/ | %104
 ^c(A/4=B/4c/4d/4 e/4f/4g/4f/4a/4g/4f/4e/4) | %105
 (f/4e/4d/4^c/4{/e}d/4c/4d/4e/4 f/4e/4d/4c/4d/4e/4f/4g/4) | aA z A/>A/ | (d2 e)f | (e>^c d)(d/A/) | %109
 BB (!turn!Bd/B/) |{/c} (B/A/)A z/ !wedge!A/!wedge!d/!wedge!f/ | (a2 g)!wedge!f | (e b2) (g/e/) | %113
 (d>f) (e>a) | (g2 f/) !wedge!A/!wedge!d/!wedge!f/ | (a2 f)!wedge!d | (_e/g/ b2) g/e/ | %117
 (d>f) (!courtesy!=e>^c) | d(3(A/=B/)!wedge!^c/{/e} (3(d/c/d/)(3!wedge!e/!wedge!f/!wedge!g/ | %119
{/g} (3(f/e/f/)(3!wedge!g/!wedge!a/!wedge!b/ (3(a/g/)!wedge!f/(3(e/d/)^c/ | %120
 d(3(A/=B/)!wedge!^c/{/e} (3(d/c/d/)(3e/f/g/ | %121
{/g} (3(f/e/f/)(3!wedge!g/!wedge!a/!wedge!b/ (3(a/g/)!wedge!f/(3(e/d/)^c/ | %122
 (3(d/f/a/){/b}(3(a/g/a/) (3(b/a/g/){/a}(3(g/f/g/) | %123
 (3(a/g/f/){/g}(3(f/e/f/) (3(g/f/e/){/f}(3(e/d/e/) | %124
 (3(f/g/)a/{/g}(3(a/g/a/) (3(b/a/g/){/a}(3(g/f/g/) | %125
 (3(a/g/f/){/g}(3(f/e/f/) (3(g/f/e/){/f}(3(e/d/e/) | %126
 (3!wedge!f/ (d/e/(3f/e/d/) (3!wedge!B/ (d/e/(3f/e/d/) | %127
 (3!wedge!A/ (d/e/(3f/e/d/) (3!wedge!^G/ (d/e/(3f/e/d/) | (3A/F/A/(3d/A/d/ (3f/d/f/(3a/f/d/ | Te4 | %130
 (3(d/f/a/){/a}(3(a/g/a/) (3(b/a/g/){/b}(3(b/a/g/) | %131
 (3(a/g/f/){/g}(3(f/e/f/) (3(g/f/e/){/f}(3(e/d/e/) | %132
 (3(f/g/)a/{/g}(3(a/g/a/) (3(b/a/g/){/a}(3(g/f/g/) | %133
 (3(a/g/f/){/g}(3(f/e/f/) (3(g/f/e/){/f}(3(e/d/e/) | %134
 (3!wedge!f/ (d/e/(3f/e/d/) (3!wedge!B/ (d/e/(3f/e/d/) | %135
 (3!wedge!A/ (d/e/(3f/e/d/) (3!wedge!^G/ (d/e/(3f/e/d/) | (3A/F/A/(3d/A/d/ (3f/d/f/(3a/f/d/ | Te4 | %138
 d2 z/ (^c/d/"_cresc."e/ | f/^f/g/a/) b/(g/e/^c/) | (ed) z/ (^c/d/e/ | f/^f/g/a/) b/(g/e/^c/) | %142
 (e2!f! d) :| %143
V:2
 z | z (F, E,D,) | (G,2 F,)^F, | G,G, G,,G,, | D,D, D, z | z (D, E,F,) | G,G, G,G, | A, z A,, z | %8
 D,A, D z | z (D, E,F,) | G,G, G,G, | A,A, A,,A,, | (3!wedge!D,/(F,/G,/(3A,/=B,/^C/ D)D, | %13
 E,E, ^C,C, | (3!wedge!D,/(F,/G,/(3A,/=B,/^C/ D)D, | E,E, ^C,C, | D,F, E,^C, | D,F, G,G, | %18
 A,A, A,, z | z/ F,,/A,,/C,/ F,G, | A,/F,/A,/C/ F z | F, z F, z | E,C, F,(G,/A,/ | B,/C/D/C/ B,)C | %24
 (B,/C/D/C/ B,)=B, | C z E, z | F,C, F,, z | z E,/G,/ CB, | A,A, A, z | z ^C,/E,/ A,G, | %30
 F,F, F, z | z/ A,,/4B,,/4 C,/D,/ _E,/F,/G,/F,/ |"_cresc." (B,A, B,=B,) | (C!courtesy!_B, A,^C) | %34
 (D!courtesy!=C B,D) | (ED CE) | F z F, z | G, z E, z | F, z F, z | G, z E, z | F, z F, z | %41
 B, z B,, z | !//!C,2 !//!C,2 | F,/A,/C/A,/ F, z | z _A, G,F, | B,B, B,B, | C2 B,-B, | %47
 _A,A, A,(F, | _E,2 _D,2 | !//!C,4) | _D,D, _E,E, | _A,_A,, A, z | !courtesy!=A,4 | B,4 | =B,4 | %55
 C4 | !/!E,4 | F,2 C,2 | !/!_D,4 | C,C/C/ CC | (C2 B,)B, | (B,2 A,)F, | D,D, E,E, | F, z F, z | %64
 G, z C, z | F, z F, z | G, z C, z | F,2 A,,-A,, | B,,!sfz! (D,2 C,) | B,,/A,,/G,,/F,,/ E,,C, | %70
 F, z F, z | B,, z B,, z | C,C, C,,C,, | (F,,/A,,/C,/F,/ A,/B,/C/A,/) | B,B, B,C | %75
 F,/(E,/F,/G,/ A,/B,/C/A,/) | B,B, B,C | F,C, F,, :: z | z (F, G,A,) | B,2 A, z | z (A, G,F,) | %82
 E,C, F,(A,/G,/) | (^F,2 G,2) | (E,2 F,2) | B,B, CC, | (F,/A,/C/B,/ A,/B,/G,/A,/) | F,F, F,F, | %88
 (F,/A,/C/B,/ A,/B,/G,/A,/) | !/!^F,4 | (G,/B,/D/B,/ G,)B, | CB, CB, | CC CC | DD D,D, | %94
 _E,E, E, z | F,F, _E,E, | (=B,,2 C,) z | ^F,F, D,D, | G,G, G, z | z G, G,G, | z F, F,F, | B,4 | %102
 A, z ^C,2 | D,F, D,F, | A, z ^C,2 | D,2 B,,2 | A,, A,2 z | z (F, E,D,) | G,2 F, z | z G, G,B, | %110
 DD, D z | z D, E,F, | !/!G,4 | A,A, A,,A,, | D,A,, D, z | z F, F,F, | !/!G,4 | A,A, A,,A,, | %118
 D,G, F,E, | D,^C, D,E, | F,G, F,E, | D,^C, D,E, | F,^F, G,E, | !courtesy!=F,D, E,^C, | %124
 D,^F, G,E, | !courtesy!=F,D, E,^C, | D, z B, z | A, z ^G, z | A, z z2 | !//!A,2 !//!A,,2 | %130
 D,^F, G,E, | F,D, E,^C, | D,^F, G,E, | F,D, E,^C, | D, z B, z | A, z ^G, z | A, z z2 | %137
 !//!A,2 !//!A,,2 | D,/(A,,/D,/F,/ A,/G,/"_cresc."F,/E,/) | (D,/C,/B,,/A,,/ G,,!p!A,,) | %140
 (D,/A,,/D,/F,/ A,/"_cresc."G,/F,/E,/) | (D,/C,/B,,/A,,/ G,,)!wedge!A,, | D,A,,!f! D, :| %143

